src/pos-icons/file-hidden.svg

<svg height="24" viewBox="0 0 24 24" width="24" xmlns="http://www.w3.org/2000/svg"><path d="m13 9h1v2h-3v-4h2zm5.5 0-2.12-2.12 1.25-1.25 2.37 2.37v2h-2v1h-3v-2zm-5.5-5.5v-1.5h-1v2h1v2h-2v-2h-2v-2h-1v2h-2v1h-2v-1c0-1.11.89-2 2-2h8l2.36 2.36-1.25 1.25zm7 16.5a2 2 0 0 1 -2 2h-2v-2h2v-1h2zm-2-5h2v3h-2zm-6 7v-2h3v2zm-4 0v-2h3v2zm-2 0c-1.11 0-2-.9-2-2v-2h2v2h1v2zm-2-8h2v3h-2zm0-4h2v3h-2zm14 1h2v3h-2zm-14-5h2v3h-2z"/></svg>

<?xml version="1.0" encoding="UTF-8"?><!DOCTYPE svg PUBLIC "-//W3C//DTD SVG 1.1//EN" "http://www.w3.org/Graphics/SVG/1.1/DTD/svg11.dtd"><svg xmlns="http://www.w3.org/2000/svg" xmlns:xlink="http://www.w3.org/1999/xlink" version="1.1" id="mdi-file-hidden" width="24" height="24" viewBox="0 0 24 24"><path d="M13,9H14V11H11V7H13V9M18.5,9L16.38,6.88L17.63,5.63L20,8V10H18V11H15V9H18.5M13,3.5V2H12V4H13V6H11V4H9V2H8V4H6V5H4V4C4,2.89 4.89,2 6,2H14L16.36,4.36L15.11,5.61L13,3.5M20,20A2,2 0 0,1 18,22H16V20H18V19H20V20M18,15H20V18H18V15M12,22V20H15V22H12M8,22V20H11V22H8M6,22C4.89,22 4,21.1 4,20V18H6V20H7V22H6M4,14H6V17H4V14M4,10H6V13H4V10M18,11H20V14H18V11M4,6H6V9H4V6Z" /></svg>
